X:7643
T:Irish Waterman,The,1st part. JNu.32
T:Irish Washerwoman,The,aka. JNu.32
M:6/8
L:1/8
Q:120
S:James Nuttall MS,c1830,Rossendale,East Lancs.
R:Jig
O:England
A:East Lancashire
Z:vmp.Manchester Morris Men
K:G
"primo"d/c/|BGG DGG|BGB dcB|cAA DAA|cAc edc|!
BGG DGG|BGB dcB|c/B/AG Acc|BGG G2::!
g/a/|bgg dgg|bgb bag|afd Adf|fdf agf|!
egg dgg|cgg Bgg|d/c/Bc Bdc|BGG G2:|]
